img/community.svg

<?xml version="1.0" encoding="UTF-8"?>
<svg width="40px" height="40px" viewBox="0 0 40 40" version="1.1" xmlns="http://www.w3.org/2000/svg" xmlns:xlink="http://www.w3.org/1999/xlink">
    <!-- Generator: Sketch 61.2 (89653) - https://sketch.com -->
    <title>8.社区</title>
    <desc>Created with Sketch.</desc>
    <g id="8.社区" stroke="none" stroke-width="1" fill="none" fill-rule="evenodd">
        <g id="社区" fill-rule="nonzero">
            <path d="M20.5617331,0.0383435583 C26.0832055,0.191717791 30.991181,2.5690184 34.4804448,6.28834356 C38.0080521,10.0076687 40.0786043,15.0690184 39.8868865,20.5521472 C39.7335123,26.0736196 37.3562117,30.9815951 33.6368865,34.4708589 C29.9175613,37.9601227 24.8945552,40.0690184 19.4114264,39.8773006 L19.3730828,39.8773006 C13.8516104,39.7239264 8.94363497,37.3466258 5.45437117,33.6273006 C1.96510736,29.9079755 -0.105444785,24.8849693 0.0479294479,19.4018405 L0.0479294479,19.3634969 C0.201303681,13.8420245 2.57860429,8.93404908 6.29792945,5.44478528 C9.97891104,1.95552147 15.0402607,-0.115030675 20.5617331,0.0383435583 Z M32.8316718,7.86042945 C29.7258436,4.60122699 25.3930215,2.49233129 20.5233896,2.33895706 L20.485046,2.33895706 C15.6154141,2.18558282 11.1292178,4.02607362 7.83167178,7.13190184 C4.53412577,10.2377301 2.42523006,14.5705521 2.27185583,19.440184 L2.27185583,19.4785276 C2.1184816,24.3481595 3.95897239,28.8343558 7.06480061,32.1319018 C10.1706288,35.4294479 14.5034509,37.5 19.3730828,37.6533742 L19.4114264,37.6533742 C24.2810583,37.8067485 28.7672546,35.9662577 32.0648006,32.8604294 C35.3623466,29.7162577 37.4712423,25.3834356 37.6246166,20.5138037 C37.7779908,15.6441718 35.8991564,11.1579755 32.8316718,7.86042945 Z" id="形状" fill="#E40065"></path>
            <path d="M16.842408,6.44171779 C18.7212423,6.44171779 20.2549847,7.97546012 20.2549847,9.85429448 C20.2549847,11.7331288 18.7212423,13.2668712 16.842408,13.2668712 C14.9635736,13.2668712 13.4298313,11.7331288 13.4298313,9.85429448 C13.4298313,7.97546012 14.9635736,6.44171779 16.842408,6.44171779 Z M10.4773773,18.8650307 C11.5509969,18.8650307 12.3945552,19.7469325 12.3945552,20.7822086 C12.3945552,21.8558282 11.5126534,22.6993865 10.4773773,22.6993865 C9.40375767,22.6993865 8.56019939,21.8558282 8.56019939,20.7822086 C8.52185583,19.7469325 9.40375767,18.8650307 10.4773773,18.8650307 Z M25.6614264,28.8726994 C26.3516104,28.8726994 26.9267638,29.4478528 26.9267638,30.1380368 C26.9267638,30.8282209 26.3516104,31.4033742 25.6614264,31.4033742 C24.9712423,31.4033742 24.396089,30.8665644 24.396089,30.1380368 C24.4344325,29.4478528 24.9712423,28.8726994 25.6614264,28.8726994 Z" id="形状" fill="#FFB7D7"></path>
            <path d="M1.4666411,31.4417178 C1.81173313,30.904908 2.50191718,30.7515337 3.03872699,31.0966258 C3.57553681,31.4417178 3.72891104,32.1319018 3.38381902,32.6687117 C3.34547546,32.7453988 3.19210123,33.0138037 3.00038344,33.3972393 C2.73197853,33.9340491 2.42523006,34.6242331 2.31019939,35.2377301 C2.27185583,35.5828221 2.27185583,35.8895706 2.42523006,36.0046012 L2.46357362,36.0429448 C3.84394172,36.7331288 7.52492331,34.892638 12.0111196,31.7484663 C17.0724693,28.1825153 22.9006902,22.9294479 27.6169479,17.5613497 C31.7197086,12.8834356 35.0939417,8.20552147 36.3209356,5.09969325 C36.6660276,4.25613497 36.8194018,3.56595092 36.7810583,3.14417178 C36.7810583,3.0291411 36.7043712,2.95245399 36.5893405,2.91411043 C36.0908742,2.79907975 35.2089724,2.95245399 33.9052914,3.45092025 C33.2917945,3.6809816 32.639954,3.37423313 32.4098926,2.7607362 C32.1798313,2.14723926 32.5249233,1.49539877 33.1000767,1.30368098 C34.8255368,0.651840491 36.1292178,0.498466258 37.0494632,0.690184049 C38.2764571,0.958588957 38.9282975,1.72546012 39.0433282,2.87576687 C39.1583589,3.71932515 38.9282975,4.75460123 38.4681748,5.98159509 C37.1261503,9.31748466 33.5985429,14.3021472 29.342408,19.095092 C24.5111196,24.5782209 18.5295245,29.946319 13.3148006,33.6656442 C8.1767638,37.3082822 3.65222393,39.2638037 1.42829755,38.1518405 C1.35161043,38.1134969 1.27492331,38.0368098 1.1982362,38.0368098 C0.0862730061,37.3466258 -0.105444785,36.196319 0.0862730061,35.0076687 C0.239647239,34.0874233 0.623082822,33.1288344 0.968174847,32.4769939 C1.1982362,31.9018405 1.38995399,31.5567485 1.4666411,31.4417178 Z" id="路径" fill="#E40065"></path>
        </g>
    </g>
</svg>

<svg width="40" height="40" viewBox="0 0 40 40" xmlns="http://www.w3.org/2000/svg"><g fill="none"><path d="M20.562.038a19.753 19.753 0 0113.918 6.25 19.668 19.668 0 015.407 14.264 19.753 19.753 0 01-6.25 13.919c-3.72 3.49-8.742 5.598-14.226 5.406h-.038a19.753 19.753 0 01-13.919-6.25C1.965 29.908-.106 24.885.048 19.402v-.039a19.753 19.753 0 016.25-13.918c3.68-3.49 8.742-5.56 14.264-5.407zm12.27 7.822c-3.106-3.259-7.439-5.368-12.309-5.521h-.038A17.6 17.6 0 007.832 7.132c-3.298 3.106-5.407 7.439-5.56 12.308v.039a17.6 17.6 0 004.793 12.653c3.106 3.297 7.438 5.368 12.308 5.521h.038a17.6 17.6 0 0012.654-4.793c3.297-3.144 5.406-7.477 5.56-12.346.153-4.87-1.726-9.356-4.793-12.654z" fill="#E40065"/><path d="M16.842 6.442a3.42 3.42 0 013.413 3.412 3.42 3.42 0 01-3.413 3.413 3.42 3.42 0 01-3.412-3.413 3.42 3.42 0 013.412-3.412zm-6.365 12.423c1.074 0 1.918.882 1.918 1.917a1.923 1.923 0 01-1.918 1.917 1.899 1.899 0 01-1.917-1.917c-.038-1.035.844-1.917 1.917-1.917zm15.184 10.008c.69 0 1.266.575 1.266 1.265s-.575 1.265-1.266 1.265c-.69 0-1.265-.536-1.265-1.265.038-.69.575-1.265 1.265-1.265z" fill="#FFB7D7"/><path d="M1.467 31.442a1.126 1.126 0 011.572-.345c.537.345.69 1.035.345 1.572-.039.076-.192.345-.384.728-.268.537-.575 1.227-.69 1.84-.038.346-.038.653.115.768l.039.038c1.38.69 5.06-1.15 9.547-4.295 5.061-3.565 10.89-8.819 15.606-14.187C31.72 12.883 35.094 8.206 36.32 5.1c.345-.844.498-1.534.46-1.956 0-.115-.077-.192-.192-.23-.498-.115-1.38.038-2.684.537a1.15 1.15 0 01-1.495-.69 1.124 1.124 0 01.69-1.457C34.826.652 36.13.498 37.05.69c1.226.269 1.878 1.035 1.993 2.186.115.843-.115 1.879-.575 3.106-1.342 3.335-4.87 8.32-9.126 13.113-4.83 5.483-10.812 10.851-16.027 14.57-5.138 3.643-9.663 5.599-11.887 4.487-.076-.039-.153-.115-.23-.115-1.112-.69-1.303-1.84-1.112-3.03.154-.92.537-1.878.882-2.53.23-.575.422-.92.499-1.035z" fill="#E40065"/></g></svg>
